X: 024
M: C
L: 1/8
K: G
g | eg (Tgf/g/) dgBg | bgdB eAAg | eg (Tgf/g/) (dg)fe | dBAG EG-G ||
g | eg (Tgf/g/) dgBg | bgdB eAAg | edeb (Tag/a/ b).g | dBAG EG-G |]


